cutejava-front/src/assets/icons/svg/star.svg

<?xml version="1.0" standalone="no"?><!DOCTYPE svg PUBLIC "-//W3C//DTD SVG 1.1//EN" "http://www.w3.org/Graphics/SVG/1.1/DTD/svg11.dtd"><svg t="1608283096405" class="icon" viewBox="0 0 1024 1024" version="1.1" xmlns="http://www.w3.org/2000/svg" p-id="4767" xmlns:xlink="http://www.w3.org/1999/xlink" width="200" height="200"><defs><style type="text/css"></style></defs><path d="M316.64 850.4a40 40 0 0 1-39.2-48l31.2-154.24a71.84 71.84 0 0 0-22.4-67.2L173.28 480a39.36 39.36 0 0 1-11.84-40.32A40 40 0 0 1 192 410.4l165.76-32a72.64 72.64 0 0 0 49.6-36.48l77.12-141.76a40 40 0 0 1 70.4 0l77.12 141.76a72.64 72.64 0 0 0 49.6 36.48l165.76 32a40 40 0 0 1 30.88 28.48 39.36 39.36 0 0 1-11.52 41.12l-116 104.64a71.2 71.2 0 0 0-23.04 62.56l21.28 158.72a39.52 39.52 0 0 1-16.96 38.24 40 40 0 0 1-41.76 2.24l-137.44-73.28a72.96 72.96 0 0 0-67.04-0.96l-151.2 74.88a38.72 38.72 0 0 1-17.92 3.36z m201.76-134.72a122.24 122.24 0 0 1 57.12 14.24l123.84 66.08-19.36-144a120.16 120.16 0 0 1 38.56-104.64l104.16-93.76L672 424.64a120.32 120.32 0 0 1-82.56-60.64l-69.44-128.96-70.08 128.96A120.32 120.32 0 0 1 368 424.64l-150.72 29.76 101.12 91.04a120 120 0 0 1 37.28 112l-28 138.24L464 728.32a120.16 120.16 0 0 1 54.4-12.64z m-12.64-504.96z" p-id="4768"></path></svg>

<svg class="icon" viewBox="0 0 1024 1024" xmlns="http://www.w3.org/2000/svg" width="200" height="200"><defs><style/></defs><path d="M316.64 850.4a40 40 0 0 1-39.2-48l31.2-154.24a71.84 71.84 0 0 0-22.4-67.2L173.28 480a39.36 39.36 0 0 1-11.84-40.32A40 40 0 0 1 192 410.4l165.76-32a72.64 72.64 0 0 0 49.6-36.48l77.12-141.76a40 40 0 0 1 70.4 0L632 341.92a72.64 72.64 0 0 0 49.6 36.48l165.76 32a40 40 0 0 1 30.88 28.48A39.36 39.36 0 0 1 866.72 480l-116 104.64a71.2 71.2 0 0 0-23.04 62.56l21.28 158.72A39.52 39.52 0 0 1 732 844.16a40 40 0 0 1-41.76 2.24L552.8 773.12a72.96 72.96 0 0 0-67.04-.96l-151.2 74.88a38.72 38.72 0 0 1-17.92 3.36zM518.4 715.68a122.24 122.24 0 0 1 57.12 14.24L699.36 796 680 652a120.16 120.16 0 0 1 38.56-104.64l104.16-93.76L672 424.64A120.32 120.32 0 0 1 589.44 364L520 235.04 449.92 364A120.32 120.32 0 0 1 368 424.64L217.28 454.4l101.12 91.04a120 120 0 0 1 37.28 112l-28 138.24L464 728.32a120.16 120.16 0 0 1 54.4-12.64zm-12.64-504.96z"/></svg>
